src/assets/images/cart/trash.svg

<svg xmlns="http://www.w3.org/2000/svg" width="24" height="24" fill="none"><path fill="#9E9E9E" d="M18.9 8H5.1c-.6 0-1.1.5-1 1.1l1.6 13.1c.1 1 1 1.7 2 1.7h8.5c1 0 1.9-.7 2-1.7l1.6-13.1c.1-.6-.3-1.1-.9-1.1ZM20 2h-5c0-1.1-.9-2-2-2h-2C9.9 0 9 .9 9 2H4c-1.1 0-2 .9-2 2v1c0 .6.4 1 1 1h18c.6 0 1-.4 1-1V4c0-1.1-.9-2-2-2Z"/></svg>

<svg width="24" height="24" viewBox="0 0 24 24" fill="none" xmlns="http://www.w3.org/2000/svg">
<path d="M18.9 8H5.1C4.5 8 4 8.5 4.1 9.1L5.7 22.2C5.8 23.2 6.7 23.9 7.7 23.9H16.2C17.2 23.9 18.1 23.2 18.2 22.2L19.8 9.1C19.9 8.5 19.5 8 18.9 8ZM20 2H15C15 0.9 14.1 0 13 0H11C9.9 0 9 0.9 9 2H4C2.9 2 2 2.9 2 4V5C2 5.6 2.4 6 3 6H21C21.6 6 22 5.6 22 5V4C22 2.9 21.1 2 20 2Z" fill="#F54B64"/>
</svg>
